assets/icons/drive/harddisk-disabled.svg

<?xml version="1.0" encoding="UTF-8" standalone="no"?>
<svg viewBox="0 0 24 24" height="24" width="24" version="1.1" id="svg10" sodipodi:docname="harddisk-disabled.svg" inkscape:version="1.2 (1:1.2.1+202207142221+cd75a1ee6d)"
   xmlns:inkscape="http://www.inkscape.org/namespaces/inkscape"
   xmlns:sodipodi="http://sodipodi.sourceforge.net/DTD/sodipodi-0.dtd"
   xmlns="http://www.w3.org/2000/svg"
   xmlns:svg="http://www.w3.org/2000/svg">
   <defs id="defs14" />
   <sodipodi:namedview id="namedview12" pagecolor="#ffffff" bordercolor="#666666" borderopacity="1.0" inkscape:pageshadow="2" inkscape:pageopacity="0.0" inkscape:pagecheckerboard="0" showgrid="true" inkscape:snap-page="true" inkscape:zoom="7.1850974" inkscape:cx="-33.959178" inkscape:cy="-1.739712" inkscape:window-width="1846" inkscape:window-height="1016" inkscape:window-x="0" inkscape:window-y="0" inkscape:window-maximized="1" inkscape:current-layer="svg10" inkscape:snap-grids="false" inkscape:showpageshadow="2" inkscape:deskcolor="#d1d1d1">
      <inkscape:grid type="xygrid" id="grid957" />
      <inkscape:grid type="xygrid" id="grid825" dotted="true" spacingx="0.5" spacingy="0.5" empspacing="10" />
   </sodipodi:namedview>
   <path id="path1416" style="fill:#808080;fill-rule:evenodd;stroke-width:0.5;stroke-linecap:round;fill-opacity:1" d="M 7.4550781 2 C 6.4865012 2.0089807 5.7372567 2.0732709 5.1171875 2.4453125 C 5.0044476 2.5129564 4.9009075 2.5934184 4.8046875 2.6835938 L 5.5117188 3.390625 C 5.5494384 3.360287 5.5886243 3.3312004 5.6328125 3.3046875 C 6.0560474 3.0507468 7.0000075 3 8.5 3 L 15.5 3 C 16.999994 3 17.943952 3.0507472 18.367188 3.3046875 C 18.578803 3.4316581 18.70975 3.5862825 18.822266 3.9238281 C 18.934781 4.2613742 19 4.7777813 19 5.5 L 19 16.878906 L 20 17.878906 L 20 5.5 C 20 4.7222262 19.94022 4.1136218 19.771484 3.6074219 C 19.602754 3.101222 19.296194 2.6933404 18.882812 2.4453125 C 18.056054 1.9492572 16.999994 2 15.5 2 L 8.5 2 C 8.1250019 2 7.7779372 1.9970064 7.4550781 2 z M 2.8535156 2.1464844 L 2.1464844 2.8535156 L 3.1464844 3.8535156 L 4.0292969 4.7363281 C 4.0118903 4.9735373 4 5.2228501 4 5.5 L 4 18.5 C 4 19.277773 4.0597828 19.88638 4.2285156 20.392578 C 4.3972492 20.89878 4.703808 21.30666 5.1171875 21.554688 C 5.9439465 22.050742 7.0000075 22 8.5 22 L 15.5 22 C 16.999994 22 18.056054 22.050737 18.882812 21.554688 C 19.278811 21.317089 19.575359 20.931968 19.748047 20.455078 L 20.146484 20.853516 L 21.146484 21.853516 L 21.853516 21.146484 L 20.853516 20.146484 L 19.970703 19.263672 L 19 18.292969 L 16.617188 15.910156 L 15.835938 15.128906 L 13.757812 13.050781 L 12.949219 12.242188 L 10.873047 10.166016 L 10.087891 9.3808594 L 10.085938 9.3808594 L 5.078125 4.3710938 L 4.2519531 3.5449219 L 3.8535156 3.1464844 L 2.8535156 2.1464844 z M 5 5.7070312 L 9.171875 9.8789062 C 7.4548322 11.055624 6.6119167 13.213428 7.1699219 15.294922 C 7.8197639 17.718227 10.164907 19.284724 12.652344 18.957031 C 14.10518 18.765848 15.340872 17.96117 16.119141 16.826172 L 18.921875 19.628906 C 18.894394 19.799199 18.862986 19.95401 18.822266 20.076172 C 18.70975 20.413719 18.578803 20.568346 18.367188 20.695312 C 17.943952 20.949254 16.999995 21 15.5 21 L 8.5 21 C 7.0000075 21 6.0560474 20.94925 5.6328125 20.695312 C 5.421195 20.568346 5.2902497 20.413719 5.1777344 20.076172 C 5.065219 19.738625 5 19.222217 5 18.5 L 5 5.7070312 z M 11.925781 9 C 11.678894 9.0036295 11.434158 9.0303803 11.191406 9.0703125 L 12.130859 10.009766 C 13.193041 10.047131 14.222758 10.503363 14.964844 11.328125 L 14.207031 12.085938 L 14.914062 12.792969 L 16.353516 11.353516 L 15.669922 10.623047 C 14.773296 9.6436284 13.523887 9.0610879 12.197266 9.0039062 C 12.106921 9.0003385 12.015953 8.9986744 11.925781 9 z M 9.8945312 10.601562 L 11.388672 12.095703 A 2 2 0 0 0 10 14 A 2 2 0 0 0 12 16 A 2 2 0 0 0 13.904297 14.611328 L 15.398438 16.105469 C 14.784596 17.094997 13.748878 17.80345 12.521484 17.964844 C 10.53195 18.226362 8.6565387 16.973306 8.1367188 15.035156 C 7.6739716 13.308262 8.4166047 11.516038 9.8945312 10.601562 z M 12 13 A 1 1 0 0 1 12.363281 13.070312 L 12.929688 13.636719 A 1 1 0 0 1 13 14 A 1 1 0 0 1 12 15 A 1 1 0 0 1 11 14 A 1 1 0 0 1 12 13 z M 16.121094 14 L 16.931641 14.810547 C 16.974993 14.545888 16.999987 14.275927 17 14 L 16.121094 14 z " />
</svg>

<svg height="24" width="24" xmlns="http://www.w3.org/2000/svg"><path style="fill:gray;stroke-width:.5;stroke-linecap:round;fill-opacity:1" d="M7.455 2c-.968.009-1.718.073-2.338.445a1.848 1.848 0 0 0-.312.239l.707.707c.037-.03.077-.06.12-.086C6.057 3.05 7 3 8.5 3h7c1.5 0 2.444.05 2.867.305.212.127.343.281.455.619.113.337.178.854.178 1.576v11.379l1 1V5.5c0-.778-.06-1.386-.229-1.893-.168-.506-.475-.914-.888-1.162C18.056 1.95 17 2 15.5 2h-7c-.375 0-.722-.003-1.045 0zm-4.601.146-.708.708 1 1 .883.882A10.54 10.54 0 0 0 4 5.5v13c0 .778.06 1.386.229 1.893.168.506.475.914.888 1.162C5.944 22.05 7 22 8.5 22h7c1.5 0 2.556.05 3.383-.445.396-.238.692-.623.865-1.1l.398.399 1 1 .708-.708-1-1-.883-.882-.971-.971-2.383-2.383-.781-.781-2.078-2.078-.809-.809-2.076-2.076-.785-.785h-.002L5.078 4.37l-.826-.826-.398-.399-1-1zM5 5.707l4.172 4.172a5 5 0 0 0 3.48 9.078 4.986 4.986 0 0 0 3.467-2.13l2.803 2.802c-.028.17-.059.325-.1.447-.112.338-.243.492-.455.62C17.944 20.948 17 21 15.5 21h-7c-1.5 0-2.444-.05-2.867-.305-.212-.127-.343-.281-.455-.619C5.065 19.74 5 19.222 5 18.5V5.707zM11.926 9c-.247.004-.492.03-.735.07l.94.94a3.995 3.995 0 0 1 2.834 1.318l-.758.758.707.707 1.44-1.44-.684-.73A5 5 0 0 0 11.926 9zm-2.031 1.602 1.494 1.494A2 2 0 0 0 10 14a2 2 0 0 0 2 2 2 2 0 0 0 1.904-1.389l1.494 1.494a4 4 0 0 1-7.262-1.07 3.999 3.999 0 0 1 1.759-4.433zM12 13a1 1 0 0 1 .363.07l.567.567A1 1 0 0 1 13 14a1 1 0 0 1-1 1 1 1 0 0 1-1-1 1 1 0 0 1 1-1zm4.121 1 .81.81c.044-.264.069-.534.069-.81h-.879z"/></svg>
